X:1
T:Anglais rul ur Salomon Carlstedts notbok
R:Anglais
O:Karskrona, Blekinge
B:Salomon Carlstedts notbok
N:Salomon Carlstedts notbok, M167 bild 9, andra till höger.
Z:Till abc Jonas Brunskog
M:2/4
L:1/8
K:G
G|:B/>c/d B/>c/d|c/>B/A/>G/ F/E/D|B/>c/d B/c/d/e/|c/B/c/A/ Gg:|
|:g/>f/g/>f/ g/>a/b/>g/|a/>g/d/>b/ c'/>a/f/>a/|g/>f/g/>f/ g/>a/b/>g/|a/>f/d/>f/ gG:|

